X: 7
T: Kitty's Rambles
R: jig
M: 6/8
L: 1/8
K: Dmix
G|FDD c2A|def geg|fed cAG|FAF GFE|
FDD c2A|def geg|fed cAG|Add d2:|
A|dfa fga|dfa agf|efg efg|eaf gfe|
f3 g3|agf efg|fed cAG|Add d2:|


Tune 1843	Setting 29615

